X: 37033
T: Silver Bell Schottische, The
R: barndance
M: 4/4
K: Dmajor
|:(3Adb|a2 (3gag B2 c2|B2 A>^G A2 A>f|f>gg>A c2 G>B|A>dd>F A2 d>b|
(3aba g2 (3BBB c>e|(3BcB A>^G A2 d>f|(3ccc f>a (3ccc e>f|d2 (3ddd d2:|
|:A>a|g2 g>f e2 e>d|c>dc>B c2 A>g|f2 f>e (3ded d>B|A>BA>^G A2 (3Ada|
g>ag>f e>f (3fed|c>dc>B c2 (3Adg|f>dA>F G>A (3cde|d2 A2 D2:|

